X: 8589
T: Cronin's
R: slide
M: 12/8
K: Amajor
|:F|EFE ABc e2e faf|e2c BcB A2F FAF|
EFE ABc e2e faf|1 e2c BcB A3 A2:|2 e2c BcB A3 A||
ce|faf f2e cec c2B|~A3 ABc B2A F2A|
faf f2e cec c2B|ABc e2c B3 Bce|
faf f2e cec c2B|~A3 ABc B2A F2A|
EFE ABc e2e faf|e2c BcB A3 A2||

